static/images/publish-2.svg

<svg height="300" viewBox="0 0 516 300" width="516" xmlns="http://www.w3.org/2000/svg" xmlns:xlink="http://www.w3.org/1999/xlink"><defs><linearGradient id="a" x1="95.434%" x2="21.137%" y1="77.234%" y2="18.145%"><stop offset="0" stop-color="#79b1a6"/><stop offset="1" stop-color="#d7eae1"/></linearGradient><linearGradient id="b" x1="83.092%" x2="19.903%" y1="90.571%" y2="15.848%"><stop offset="0" stop-color="#0d6763"/><stop offset="1" stop-color="#d7eae1"/></linearGradient><ellipse id="c" cx="62.56" cy="69.842" rx="58.88" ry="58.814"/><circle id="d" cx="61.947" cy="134.17" r="3.44"/><circle id="e" cx="23.92" cy="3.063" r="3.44"/><circle id="f" cx="3.067" cy="117.016" r="3.44"/><circle id="g" cx="128.187" cy="39.822" r="3.44"/><circle id="h" cx="125.733" cy="102.312" r="3.44"/><linearGradient id="i" x1="97.457%" x2="20.421%" y1="78.844%" y2="17.577%"><stop offset="0" stop-color="#438f83"/><stop offset="1" stop-color="#fff"/></linearGradient><linearGradient id="j" x1="90.602%" x2="21.291%" y1="73.392%" y2="18.268%"><stop offset="0" stop-color="#a13a21"/><stop offset="1" stop-color="#f09a85"/></linearGradient><ellipse id="k" cx="47.84" cy="53.913" rx="26.987" ry="26.957"/><linearGradient id="l" x1="23.784%" x2="83.518%" y1="18.443%" y2="80.419%"><stop offset="0" stop-color="#efdaaf"/><stop offset="1" stop-color="#bf9f5e"/></linearGradient><mask id="m" fill="#fff"><path d="m0 0h516v300h-516z" fill="#fff" fill-rule="evenodd"/></mask></defs><g fill="none" fill-rule="evenodd" mask="url(#m)"><g transform="translate(28 -13)"><path d="m230 48.097 123.51 231.27-238.425-127.636-80.29 100.675" stroke="#000" stroke-linecap="square" stroke-opacity=".161" stroke-width="1.376"/><g fill="url(#a)"><ellipse cx="421.973" cy="225.455" rx="9.813" ry="9.802"/><ellipse cx="34.96" cy="251.798" rx="5.52" ry="5.514"/><ellipse cx="353.28" cy="279.368" rx="3.68" ry="3.676"/><ellipse cx="115.307" cy="151.937" rx="3.68" ry="3.676"/><ellipse cx="229.387" cy="47.787" rx="3.68" ry="3.676"/></g><path d="m204.424 229.56 125.979-78.052" stroke="#4a7c6e" stroke-linecap="square" stroke-opacity=".307" stroke-width="1.376"/><g transform="translate(201.173 112.727)"><use fill="#437d6d" xlink:href="#c"/><use fill="#4e8764" xlink:href="#c"/><use fill="#3d725e" xlink:href="#c"/><use fill="url(#b)" xlink:href="#c"/></g><g transform="translate(201.173 112.727)"><use fill="#437d6d" xlink:href="#d"/><use fill="#4e8764" xlink:href="#d"/><use fill="#3d725e" xlink:href="#d"/><use fill="#4a7c6e" xlink:href="#d"/></g><g transform="translate(201.173 112.727)"><use fill="#437d6d" xlink:href="#e"/><use fill="#4e8764" xlink:href="#e"/><use fill="#3d725e" xlink:href="#e"/><use fill="#4a7c6e" xlink:href="#e"/></g><g transform="translate(201.173 112.727)"><use fill="#437d6d" xlink:href="#f"/><use fill="#4e8764" xlink:href="#f"/><use fill="#3d725e" xlink:href="#f"/><use fill="#4a7c6e" xlink:href="#f"/></g><g transform="translate(201.173 112.727)"><use fill="#437d6d" xlink:href="#g"/><use fill="#4e8764" xlink:href="#g"/><use fill="#3d725e" xlink:href="#g"/><use fill="#4a7c6e" xlink:href="#g"/></g><g transform="translate(201.173 112.727)"><use fill="#437d6d" xlink:href="#h"/><use fill="#4e8764" xlink:href="#h"/><use fill="#3d725e" xlink:href="#h"/><use fill="#4a7c6e" xlink:href="#h"/></g><path d="m224.289 115.178-20.662 114.642 58.63 17.689 64.25-32.816 3.466-62.933zm.976.795 37.683 132.141m-58.528-18.554 122.306-14.337" stroke="#4a7c6e" stroke-linecap="square" stroke-opacity=".307" stroke-width="1.376"/><g transform="translate(29.44 24.506)"><path d="m3.68 61.877 87.843 3.676" stroke="#4a7c6e" stroke-linecap="square" stroke-opacity=".307" stroke-width="1.376"/><ellipse cx="47.84" cy="53.913" fill="url(#a)" rx="26.987" ry="26.957"/><path d="m51.43 3.063-47.75 58.687 32.356 31.374 55.487-27.04z" stroke="#4a7c6e" stroke-linecap="square" stroke-opacity=".307" stroke-width="1.376"/><g fill="#9acabd"><ellipse cx="91.387" cy="65.553" rx="3.067" ry="3.063"/><ellipse cx="50.907" cy="3.063" rx="3.067" ry="3.063"/><ellipse cx="3.067" cy="61.877" rx="3.067" ry="3.063"/><ellipse cx="36.187" cy="92.51" rx="3.067" ry="3.063"/></g><path d="m51.358 3.32-15.171 89.802" stroke="#4a7c6e" stroke-linecap="square" stroke-opacity=".307" stroke-width="1.376"/></g><g transform="matrix(0 1 1 0 340.453 25.066)"><path d="m3.68 61.877 87.843 3.676" stroke="#4a7c6e" stroke-linecap="square" stroke-opacity=".307" stroke-width="1.376"/><use fill="url(#i)" xlink:href="#k"/><use fill="url(#j)" xlink:href="#k"/><path d="m51.43 3.063-47.75 58.687 32.356 31.374 55.487-27.04z" stroke="#4a7c6e" stroke-linecap="square" stroke-opacity=".307" stroke-width="1.376"/><g fill="#9acabd"><ellipse cx="91.387" cy="65.553" rx="3.067" ry="3.063"/><ellipse cx="50.907" cy="3.063" rx="3.067" ry="3.063"/><ellipse cx="3.067" cy="61.877" rx="3.067" ry="3.063"/><ellipse cx="36.187" cy="92.51" rx="3.067" ry="3.063"/></g><path d="m51.358 3.32-15.171 89.802" stroke="#4a7c6e" stroke-linecap="square" stroke-opacity=".307" stroke-width="1.376"/></g><g transform="matrix(.5 .8660254 .8660254 -.5 42.967059 241.958871)"><path d="m2.453 51.462 71.805 4.289m-71.805-4.289 63.787-48.996" stroke="#4a7c6e" stroke-linecap="square" stroke-opacity=".307" stroke-width="1.376"/><ellipse cx="44.773" cy="38.597" fill="url(#l)" rx="22.693" ry="22.668"/><path d="m66.24 3.676 8.018 52.688-39.911 9.802-31.894-14.704m63.787-47.786-31.893 61.264" stroke="#4a7c6e" stroke-linecap="square" stroke-opacity=".307" stroke-width="1.376"/><g fill="#9acabd"><ellipse cx="66.853" cy="3.063" rx="3.067" ry="3.063"/><ellipse cx="3.067" cy="50.85" rx="3.067" ry="3.063"/><ellipse cx="32.507" cy="66.779" rx="3.067" ry="3.063"/><ellipse cx="74.213" cy="56.976" rx="3.067" ry="3.063"/></g></g></g></g></svg>

<svg xmlns="http://www.w3.org/2000/svg" xmlns:xlink="http://www.w3.org/1999/xlink" width="516" height="300" viewBox="0 0 516 300">
    <defs>
        <path id="a" d="M0 0h516v300H0z"/>
        <linearGradient id="c" x1="95.434%" x2="21.137%" y1="77.234%" y2="18.145%">
            <stop offset="0%" stop-color="#79B1A6"/>
            <stop offset="100%" stop-color="#D7EAE1"/>
        </linearGradient>
        <linearGradient id="e" x1="83.092%" x2="19.903%" y1="90.571%" y2="15.848%">
            <stop offset="0%" stop-color="#0D6763"/>
            <stop offset="100%" stop-color="#D7EAE1"/>
        </linearGradient>
        <ellipse id="d" cx="62.56" cy="69.842" rx="58.88" ry="58.814"/>
        <circle id="f" cx="61.947" cy="134.17" r="3.44"/>
        <circle id="g" cx="23.92" cy="3.063" r="3.44"/>
        <circle id="h" cx="3.067" cy="117.016" r="3.44"/>
        <circle id="i" cx="128.187" cy="39.822" r="3.44"/>
        <circle id="j" cx="125.733" cy="102.312" r="3.44"/>
        <linearGradient id="k" x1="97.457%" x2="20.421%" y1="78.844%" y2="17.577%">
            <stop offset="0%" stop-color="#438F83"/>
            <stop offset="100%" stop-color="#FFF"/>
        </linearGradient>
        <linearGradient id="m" x1="90.602%" x2="21.291%" y1="73.392%" y2="18.268%">
            <stop offset="0%" stop-color="#A13A21"/>
            <stop offset="100%" stop-color="#F09A85"/>
        </linearGradient>
        <ellipse id="l" cx="47.84" cy="53.913" rx="26.987" ry="26.957"/>
        <linearGradient id="n" x1="23.784%" x2="83.518%" y1="18.443%" y2="80.419%">
            <stop offset="0%" stop-color="#EFDAAF"/>
            <stop offset="100%" stop-color="#BF9F5E"/>
        </linearGradient>
    </defs>
    <g fill="none" fill-rule="evenodd">
        <mask id="b" fill="#fff">
            <use xlink:href="#a"/>
        </mask>
        <g mask="url(#b)">
            <g transform="translate(28 -13)">
                <path stroke="#000" stroke-linecap="square" stroke-opacity=".161" stroke-width="1.376" d="M230 48.097l123.51 231.27-238.425-127.636-80.29 100.675"/>
                <ellipse cx="421.973" cy="225.455" fill="url(#c)" rx="9.813" ry="9.802"/>
                <ellipse cx="34.96" cy="251.798" fill="url(#c)" rx="5.52" ry="5.514"/>
                <ellipse cx="353.28" cy="279.368" fill="url(#c)" rx="3.68" ry="3.676"/>
                <ellipse cx="115.307" cy="151.937" fill="url(#c)" rx="3.68" ry="3.676"/>
                <ellipse cx="229.387" cy="47.787" fill="url(#c)" rx="3.68" ry="3.676"/>
                <path stroke="#4A7C6E" stroke-linecap="square" stroke-opacity=".307" stroke-width="1.376" d="M204.424 229.56l125.979-78.052"/>
                <g transform="translate(201.173 112.727)">
                    <use fill="#437D6D" xlink:href="#d"/>
                    <use fill="#4E8764" xlink:href="#d"/>
                    <use fill="#3D725E" xlink:href="#d"/>
                    <use fill="url(#e)" xlink:href="#d"/>
                </g>
                <g transform="translate(201.173 112.727)">
                    <use fill="#437D6D" xlink:href="#f"/>
                    <use fill="#4E8764" xlink:href="#f"/>
                    <use fill="#3D725E" xlink:href="#f"/>
                    <use fill="#4A7C6E" xlink:href="#f"/>
                </g>
                <g transform="translate(201.173 112.727)">
                    <use fill="#437D6D" xlink:href="#g"/>
                    <use fill="#4E8764" xlink:href="#g"/>
                    <use fill="#3D725E" xlink:href="#g"/>
                    <use fill="#4A7C6E" xlink:href="#g"/>
                </g>
                <g transform="translate(201.173 112.727)">
                    <use fill="#437D6D" xlink:href="#h"/>
                    <use fill="#4E8764" xlink:href="#h"/>
                    <use fill="#3D725E" xlink:href="#h"/>
                    <use fill="#4A7C6E" xlink:href="#h"/>
                </g>
                <g transform="translate(201.173 112.727)">
                    <use fill="#437D6D" xlink:href="#i"/>
                    <use fill="#4E8764" xlink:href="#i"/>
                    <use fill="#3D725E" xlink:href="#i"/>
                    <use fill="#4A7C6E" xlink:href="#i"/>
                </g>
                <g transform="translate(201.173 112.727)">
                    <use fill="#437D6D" xlink:href="#j"/>
                    <use fill="#4E8764" xlink:href="#j"/>
                    <use fill="#3D725E" xlink:href="#j"/>
                    <use fill="#4A7C6E" xlink:href="#j"/>
                </g>
                <path stroke="#4A7C6E" stroke-linecap="square" stroke-opacity=".307" stroke-width="1.376" d="M224.289 115.178L203.627 229.82l58.63 17.689 64.25-32.816 3.466-62.933zM225.265 115.973l37.683 132.141M204.42 229.56l122.306-14.337"/>
                <g transform="translate(29.44 24.506)">
                    <path stroke="#4A7C6E" stroke-linecap="square" stroke-opacity=".307" stroke-width="1.376" d="M3.68 61.877l87.843 3.676"/>
                    <ellipse cx="47.84" cy="53.913" fill="url(#c)" rx="26.987" ry="26.957"/>
                    <path stroke="#4A7C6E" stroke-linecap="square" stroke-opacity=".307" stroke-width="1.376" d="M51.43 3.063L3.68 61.75l32.356 31.374 55.487-27.04z"/>
                    <ellipse cx="91.387" cy="65.553" fill="#9ACABD" rx="3.067" ry="3.063"/>
                    <ellipse cx="50.907" cy="3.063" fill="#9ACABD" rx="3.067" ry="3.063"/>
                    <ellipse cx="3.067" cy="61.877" fill="#9ACABD" rx="3.067" ry="3.063"/>
                    <ellipse cx="36.187" cy="92.51" fill="#9ACABD" rx="3.067" ry="3.063"/>
                    <path stroke="#4A7C6E" stroke-linecap="square" stroke-opacity=".307" stroke-width="1.376" d="M51.358 3.32L36.187 93.122"/>
                </g>
                <g transform="matrix(0 1 1 0 340.453 25.066)">
                    <path stroke="#4A7C6E" stroke-linecap="square" stroke-opacity=".307" stroke-width="1.376" d="M3.68 61.877l87.843 3.676"/>
                    <use fill="url(#k)" xlink:href="#l"/>
                    <use fill="url(#m)" xlink:href="#l"/>
                    <path stroke="#4A7C6E" stroke-linecap="square" stroke-opacity=".307" stroke-width="1.376" d="M51.43 3.063L3.68 61.75l32.356 31.374 55.487-27.04z"/>
                    <ellipse cx="91.387" cy="65.553" fill="#9ACABD" rx="3.067" ry="3.063"/>
                    <ellipse cx="50.907" cy="3.063" fill="#9ACABD" rx="3.067" ry="3.063"/>
                    <ellipse cx="3.067" cy="61.877" fill="#9ACABD" rx="3.067" ry="3.063"/>
                    <ellipse cx="36.187" cy="92.51" fill="#9ACABD" rx="3.067" ry="3.063"/>
                    <path stroke="#4A7C6E" stroke-linecap="square" stroke-opacity=".307" stroke-width="1.376" d="M51.358 3.32L36.187 93.122"/>
                </g>
                <g transform="scale(1 -1) rotate(-60 -188.059 -158.19)">
                    <path stroke="#4A7C6E" stroke-linecap="square" stroke-opacity=".307" stroke-width="1.376" d="M2.453 51.462l71.805 4.289M2.453 51.462L66.24 2.466"/>
                    <ellipse cx="44.773" cy="38.597" fill="url(#n)" rx="22.693" ry="22.668"/>
                    <path stroke="#4A7C6E" stroke-linecap="square" stroke-opacity=".307" stroke-width="1.376" d="M66.24 3.676l8.018 52.688-39.911 9.802L2.453 51.462M66.24 3.676L34.347 64.94"/>
                    <ellipse cx="66.853" cy="3.063" fill="#9ACABD" rx="3.067" ry="3.063"/>
                    <ellipse cx="3.067" cy="50.85" fill="#9ACABD" rx="3.067" ry="3.063"/>
                    <ellipse cx="32.507" cy="66.779" fill="#9ACABD" rx="3.067" ry="3.063"/>
                    <ellipse cx="74.213" cy="56.976" fill="#9ACABD" rx="3.067" ry="3.063"/>
                </g>
            </g>
        </g>
    </g>
</svg>
